public/stickers/hack_strikes_back.svg

<svg width="787" height="410" viewBox="0 0 787 410" fill="none" xmlns="http://www.w3.org/2000/svg">
<g clip-path="url(#clip0)">
<path d="M152.984 -1.78616C134.449 -1.84881 125.224 6.88097 121.299 21.568L119.669 27.6525H116.951C97.1549 27.6457 79.4553 47.1581 74.2884 66.4957L0.701418 341.875C-3.21942 356.549 9.5313 380.443 33.0927 380.392L459.708 379.622L459.775 383.132C459.715 395.082 467.142 410.799 484.634 411.229L620.775 411.012C638.268 411.442 655.297 402.725 658.782 389.682L661.662 379.088L677.406 379.034C699.016 378.987 710.636 366.739 719.254 334.487L786.028 70.6245C791.195 51.2869 775.01 27.8767 755.213 27.8698L315.637 28.0141L322.696 21.2607C332.004 12.9845 326.683 -1.19908 313.718 -1.2429L152.984 -1.78616Z" fill="#242424"/>
<path d="M124.204 78.861L116.781 105.564L148.934 106.318L120.926 210.787L151.689 210.801L179.698 106.332L220.902 106.35L228.802 79.2794L124.204 78.861ZM248.561 79.2876L240.582 106.358L725.824 106.565L733.083 79.4906L248.561 79.2876ZM603.071 118.622C575.909 118.61 557.422 138.689 549.959 166.527C542.243 195.305 549.967 211.712 577.262 211.724C588.046 211.729 597.169 209.506 603.241 207.222L602.477 192.141C597.01 194.156 590.347 195.963 584.09 195.96C569.976 195.955 569.148 183.341 574.052 165.052C579.171 145.956 587.394 134.381 598.844 134.386C603.504 134.388 607.513 135.992 610.817 142.046L626.098 129.771C622.589 123.986 617.317 118.628 603.071 118.622H603.071ZM195.711 119.592L171.286 210.695L193.341 210.704L203.8 171.692L234.903 171.706L224.444 210.718L246.329 210.726L270.754 119.623L248.869 119.614L239.283 155.37L208.18 155.356L217.766 119.601L195.711 119.592ZM287.267 119.631L262.842 210.734L322.108 210.759L326.472 194.48L289.261 194.465L295.433 171.446L322.294 171.458L329.184 155.466L299.721 155.454L304.958 135.92L340.302 135.935L344.666 119.657L287.267 119.631ZM391.095 119.674L366.67 210.778L388.611 210.787L399.071 171.775L430.287 171.789L419.827 210.8L441.656 210.809L466.081 119.706L444.252 119.697L434.666 155.453L403.45 155.439L413.036 119.683L391.095 119.674ZM508.438 119.724L449.743 210.813L471.628 210.822L484.48 188.834L513.603 188.846L514.381 210.84L536.605 210.848L527.948 119.731L508.438 119.724ZM638.674 119.779L614.249 210.883L636.191 210.891L660.616 119.788L638.674 119.779ZM687.138 119.8C677.686 139.163 669.169 151.77 651.402 159.429L650.989 160.971L668.312 210.906L692.742 210.916L674.487 162.981C686.093 155.454 697.093 145.224 708.967 119.809L687.138 119.8ZM511.545 142.518C511.776 149.109 512.337 162.018 513.12 172.509L493.836 172.501C500.207 162.147 507.709 149.375 511.545 142.518V142.518ZM115.311 223.924C103.824 223.919 91.7504 231.219 88.6399 242.821C85.8168 253.351 90.828 258.707 100.771 263.391C105.839 265.734 108.783 267.683 107.528 272.363C106.273 277.043 103.072 279.616 97.6659 279.613C92.5498 279.612 85.3026 274.135 83.8084 272.867L75.5124 284.402C79.3878 287.232 86.5646 291.376 96.6038 291.381C110.697 291.386 122.193 281.792 125.408 269.8C128.075 259.855 124.263 255.222 115.111 250.83C107.847 247.316 105.511 244.891 106.372 240.601C107.13 237.774 109.922 235.69 114.362 235.692C119.285 235.693 124.301 239.351 126.849 241.009L135.368 230.331C131.834 227.307 124.578 223.928 115.311 223.924ZM413.051 224.05C401.564 224.045 389.434 231.345 386.324 242.947C383.501 253.477 388.568 258.833 398.511 263.517C403.579 265.86 406.523 267.809 405.268 272.489C404.014 277.169 400.812 279.742 395.406 279.739C390.29 279.738 382.986 274.261 381.492 272.993L373.196 284.528C377.072 287.358 384.305 291.502 394.344 291.507C408.438 291.512 419.877 281.918 423.092 269.926C425.759 259.981 421.947 255.348 412.794 250.956C405.53 247.443 403.252 245.017 404.112 240.727C404.87 237.899 407.605 235.816 412.046 235.818C416.969 235.819 422.042 239.477 424.59 241.136L433.052 230.457C429.518 227.433 422.318 224.054 413.051 224.05L413.051 224.05ZM611.206 224.134C591.514 224.126 578.167 238.725 572.756 258.907C567.162 279.771 572.823 291.582 592.611 291.591C600.43 291.594 606.937 290.055 611.339 288.4L610.814 277.489C606.851 278.949 602.062 280.227 597.525 280.225C587.293 280.221 586.658 270.974 590.213 257.715C593.924 243.87 599.841 235.554 608.143 235.558C611.522 235.559 614.426 236.771 616.821 241.16L627.934 232.196C625.39 228.002 621.534 224.139 611.206 224.134H611.206ZM215.207 224.709C210.96 224.708 197.306 224.873 195.086 224.872L177.398 290.843L193.289 290.85L200.778 262.92L202.474 262.92C209.135 262.924 208.594 272.623 212.008 290.858L229.086 290.865C226.616 274.873 225.776 264.576 219.326 260.185C226.894 257.166 232.686 251.913 234.908 243.626C238.227 231.243 231.617 224.716 215.207 224.709L215.207 224.709ZM488.574 224.825C484.52 224.823 470.769 224.989 468.452 224.988L450.765 290.959C453.565 290.96 466.068 291.08 469.736 291.081C488.173 291.088 499.14 284.774 502.407 272.587C504.42 265.08 501.355 259.362 492.46 256.531C501.3 253.804 506.987 248.544 508.764 241.914C511.588 231.384 504.791 224.832 488.574 224.825V224.825ZM140.231 224.849L137.077 236.615L152.628 236.622L138.096 290.827L154.1 290.834L168.632 236.629L183.618 236.636L188.808 224.871L140.231 224.849ZM252.937 224.897L235.25 290.868L251.254 290.875L268.941 224.903L252.937 224.897ZM280.873 224.909L263.186 290.88L279.133 290.887L296.821 224.916L280.873 224.909ZM315.935 224.924C309.082 238.963 303.032 248.037 290.151 253.59L289.83 254.789L302.319 290.897L320.076 290.904L306.808 256.224C315.222 250.767 323.274 243.356 331.882 224.931L315.935 224.924ZM342.457 224.935L324.77 290.906L367.749 290.925L370.903 279.158L343.872 279.146L348.344 262.467L367.854 262.476L372.87 250.939L351.437 250.93L355.25 236.708L380.924 236.718L384.079 224.952L342.457 224.935ZM542.591 225.019L500.134 290.98L515.969 290.987L525.187 275.168L546.337 275.176L546.958 291L563.075 291.007L556.728 225.026L542.591 225.019ZM636.974 225.059L619.287 291.031L635.291 291.038L652.978 225.066L636.974 225.059ZM672.092 225.075C665.239 239.114 659.189 248.188 646.309 253.741L645.987 254.94L658.477 291.048L676.29 291.055L662.965 256.375C671.379 250.918 679.318 243.507 687.926 225.081L672.092 225.075ZM208.22 235.161L211.783 235.163C218.347 235.166 219.281 239.259 217.974 244.134C216.38 250.081 212.081 252.871 207.544 252.87L203.473 252.868L208.22 235.161ZM483.253 235.392C483.973 235.376 484.807 235.393 485.628 235.393C491.323 235.395 492.809 238.773 491.372 244.135C489.62 250.668 485.357 252.644 481.399 252.643L476.932 252.641L481.526 235.506C481.925 235.457 482.532 235.408 483.253 235.392V235.392ZM544.838 241.53C545.005 246.308 545.423 255.575 545.99 263.181L532.078 263.176C536.697 255.669 542.057 246.503 544.838 241.531L544.838 241.53ZM478.519 262.752C485.855 262.756 487.026 267.306 485.719 272.181C483.994 278.616 479.493 280.462 474.281 280.459L469.474 280.458L474.175 262.922C475.07 262.825 476.781 262.752 478.519 262.753V262.752ZM61.7453 302.304L53.8156 329.751L666.302 330.01L674.238 302.424L61.7453 302.304Z" fill="#E8E1CF"/>
<path d="M167.725 54.3613L153.614 54.3561L157.839 39.4253L146.55 39.42L142.326 54.3509L130.701 54.3457L130.663 54.482L124.828 54.4803C107.575 54.2042 102.966 61.8823 97.1617 76.2571L29.6736 332.657C26.2327 344.824 32.9632 354.455 45.012 354.451L504.361 354.236C504.381 354.235 504.405 354.237 504.424 354.237C505.25 354.184 506.086 354.17 506.93 354.17L518.555 354.175L523.155 354.177L519.545 366.937L508.83 366.931C505.851 366.93 503.649 367.023 502.168 367.2C500.687 367.379 499.323 367.666 498.088 368.081C496.854 368.496 495.671 369.222 494.517 370.251C493.363 371.28 492.312 373.067 491.435 375.68C490.817 378.214 490.851 380.021 491.444 381.11C492.038 382.199 492.93 382.926 494.122 383.283C495.315 383.641 496.543 383.892 497.876 384.031C499.208 384.17 501.228 384.236 503.933 384.238L514.457 384.243L510.828 397.07L494.793 397.063C490.188 397.061 486.264 396.191 483.006 394.547C479.752 392.882 477.536 390.384 476.315 387.077C475.114 383.771 475.172 379.718 476.527 374.928C477.4 371.843 478.713 369.117 480.483 366.648L41.4944 366.872C22.8596 366.876 12.0512 351.47 17.3734 332.652L84.8631 76.2509C94.219 49.7044 102.271 41.3012 128.322 42.1273L131.669 42.1287L139.946 12.8782H139.946L154.057 12.8835L150.025 27.1357L161.313 27.1409L165.346 12.8887L179.457 12.8939L168.665 51.0356L167.724 54.3607L182.104 54.3659L186.904 46.902L199.805 46.9072L200.381 54.3734L216.776 54.3804L213.995 12.9074L192.56 12.8987L168.665 51.0349L167.725 54.3613ZM251.423 12.9237C248.028 12.9223 244.723 13.3 241.469 14.1408C238.239 14.9633 235.196 16.2355 232.397 17.9384C229.604 19.6223 227.193 21.7503 225.149 24.3155C223.13 26.8617 221.663 29.7468 220.742 33.0016C219.431 37.6352 219.44 41.5456 220.713 44.7442C222.005 47.9428 224.255 50.3999 227.595 52.0096C230.94 53.6008 234.996 54.3886 239.69 54.3905L255.884 54.3975L259.816 42.0459L248.829 42.0407C246.073 42.0396 243.998 41.9689 242.638 41.8357C241.278 41.7005 239.971 41.4328 238.75 41.0873C237.53 40.7425 236.606 40.0357 235.986 38.9821C235.365 37.9285 235.392 36.2065 235.986 33.7556C236.841 31.2285 237.801 29.458 238.962 28.4625C240.122 27.4675 241.329 26.7617 242.581 26.3599C243.833 25.9582 245.222 25.6513 246.728 25.4792C248.235 25.3058 250.536 25.2788 253.573 25.28L264.491 25.2852L268.423 12.9335L263.25 12.9317L251.423 12.9265L251.423 12.9237ZM272.388 12.9324L260.655 54.3992L274.699 54.4045L278.194 42.0527L285.651 54.4091L301.443 54.416L302.719 54.4166L743.704 54.1952C755.753 54.1934 762.484 63.8229 759.043 75.9897L691.65 332.39C687.406 351.182 678.219 354.164 663.983 354.166L635.812 354.218L635.747 354.219L611.153 354.209L599.017 397.101L621.527 397.11C625.358 397.152 628.646 396.9 631.482 396.367C634.337 395.834 636.916 394.65 639.114 392.909C641.331 391.168 642.879 388.626 643.837 385.241C644.139 384.172 644.196 383.092 644.019 381.983C643.841 380.874 643.437 379.867 642.782 378.996C642.151 378.105 641.275 377.321 640.141 376.687C639.014 376.033 637.679 375.662 636.187 375.462L636.226 375.326C639.678 374.278 642.314 372.947 644.146 371.325C645.519 370.108 646.587 368.55 647.285 366.643L660.472 366.584C688.946 366.585 696.816 359.768 703.949 332.393L771.343 75.9922C776.665 57.1746 765.837 41.836 747.203 41.8408L306.217 42.0621L304.94 42.0616L293.249 42.0564L288.44 33.6375L310.423 12.9451L296.38 12.9399L282.613 26.4412L286.435 12.9357L280.992 12.9339L272.388 12.9324ZM200.719 22.0652L201.784 38.4913L189.89 38.4861L200.719 22.0652ZM527.493 354.176L515.357 397.069L549.18 397.246L552.809 384.419L532.828 384.245L541.335 354.179L527.493 354.176ZM564.91 354.192L557.785 379.371C556.766 382.973 556.476 385.889 556.921 388.127C557.385 390.364 558.406 392.2 560.002 393.626C561.617 395.052 563.68 396.076 566.174 396.75C568.694 397.405 571.273 397.779 573.863 397.84C577.021 397.76 579.99 397.345 582.762 396.554C585.553 395.763 587.997 394.655 590.086 393.231C592.195 391.807 594.072 389.989 595.769 387.871C597.491 385.734 598.936 382.884 600.003 379.321L607.108 354.21L593.266 354.204L586.103 379.519C585.386 382.33 584.173 384.372 582.446 385.559C580.718 386.746 578.775 387.35 576.686 387.389C574.121 387.307 572.389 386.683 571.493 385.554C570.597 384.425 570.654 382.403 571.589 379.513L578.752 354.198L564.91 354.192ZM618.561 364.599L628.842 364.603C629.293 364.603 629.798 364.806 630.33 365.282C630.882 365.758 631.014 366.626 630.762 367.794C630.437 368.804 629.863 369.624 629.063 370.237C628.267 370.83 627.567 371.119 626.999 371.119L616.718 371.115L618.561 364.599ZM614.068 380.481L623.475 380.484C625.435 380.485 626.908 380.859 627.804 381.572C628.72 382.285 628.927 383.244 628.457 384.491C628.139 385.62 627.27 386.569 625.836 387.34C624.403 388.112 622.838 388.484 621.228 388.424L611.821 388.421L614.068 380.481Z" fill="#DB4B4F" stroke="#E8E1CF" stroke-width="1.49161"/>
</g>
<defs>
<clipPath id="clip0">
<rect width="787" height="410" fill="white"/>
</clipPath>
</defs>
</svg>

<svg width="787" height="410" fill="none" xmlns="http://www.w3.org/2000/svg"><g clip-path="url(#a)"><path d="M152.984-1.786c-18.535-.063-27.76 8.667-31.685 23.354l-1.63 6.084h-2.718c-19.796-.006-37.496 19.506-42.663 38.844L.701 341.875c-3.92 14.674 8.83 38.568 32.392 38.517l426.615-.77.067 3.51c-.06 11.95 7.367 27.667 24.859 28.097l136.141-.217c17.493.43 34.522-8.287 38.007-21.33l2.88-10.594 15.744-.054c21.61-.047 33.23-12.295 41.848-44.547l66.774-263.863c5.167-19.337-11.018-42.747-30.815-42.754l-439.576.144 7.059-6.753c9.308-8.276 3.987-22.46-8.978-22.504l-160.734-.543Z" fill="#242424"/><path d="m124.204 78.861-7.423 26.703 32.153.754-28.008 104.469 30.763.014 28.009-104.469 41.204.018 7.9-27.07-104.598-.419Zm124.357.427-7.979 27.07 485.242.207 7.259-27.074-484.522-.203Zm354.51 39.334c-27.162-.012-45.649 20.067-53.112 47.905-7.716 28.778.008 45.185 27.303 45.197 10.784.005 19.907-2.218 25.979-4.502l-.764-15.081c-5.467 2.015-12.13 3.822-18.387 3.819-14.114-.005-14.942-12.619-10.038-30.908 5.119-19.096 13.342-30.671 24.792-30.666 4.66.002 8.669 1.606 11.973 7.66l15.281-12.275c-3.509-5.785-8.781-11.143-23.027-11.149Zm-407.36.97-24.425 91.103 22.055.009 10.459-39.012 31.103.014-10.459 39.012 21.885.008 24.425-91.103-21.885-.009-9.586 35.756-31.103-.014 9.586-35.755-22.055-.009Zm91.556.039-24.425 91.103 59.266.025 4.364-16.279-37.211-.015 6.172-23.019 26.861.012 6.89-15.992-29.463-.012 5.237-19.534 35.344.015 4.364-16.278-57.399-.026Zm103.828.043-24.425 91.104 21.941.009 10.46-39.012 31.216.014-10.46 39.011 21.829.009 24.425-91.103-21.829-.009-9.586 35.756-31.216-.014 9.586-35.756-21.941-.009Zm117.343.05-58.695 91.089 21.885.009 12.852-21.988 29.123.012.778 21.994 22.224.008-8.657-91.117-19.51-.007Zm130.236.055-24.425 91.104 21.942.008 24.425-91.103-21.942-.009Zm48.464.021c-9.452 19.363-17.969 31.97-35.736 39.629l-.413 1.542 17.323 49.935 24.43.01-18.255-47.935c11.606-7.527 22.606-17.757 34.48-43.172l-21.829-.009Zm-175.593 22.718c.231 6.591.792 19.5 1.575 29.991l-19.284-.008c6.371-10.354 13.873-23.126 17.709-29.983Zm-396.234 81.406c-11.487-.005-23.56 7.295-26.671 18.897-2.823 10.53 2.188 15.886 12.131 20.57 5.068 2.343 8.012 4.292 6.757 8.972-1.255 4.68-4.456 7.253-9.862 7.25-5.116-.001-12.363-5.478-13.858-6.746l-8.296 11.535c3.876 2.83 11.053 6.974 21.092 6.979 14.093.005 25.589-9.589 28.804-21.581 2.667-9.945-1.145-14.578-10.297-18.97-7.264-3.514-9.6-5.939-8.739-10.229.758-2.827 3.55-4.911 7.99-4.909 4.923.001 9.939 3.659 12.487 5.317l8.519-10.678c-3.534-3.024-10.79-6.403-20.057-6.407Zm297.74.126c-11.487-.005-23.617 7.295-26.727 18.897-2.823 10.53 2.244 15.886 12.187 20.57 5.068 2.343 8.012 4.292 6.757 8.972-1.254 4.68-4.456 7.253-9.862 7.25-5.116-.001-12.42-5.478-13.914-6.746l-8.296 11.535c3.876 2.83 11.109 6.974 21.148 6.979 14.094.005 25.533-9.589 28.748-21.581 2.667-9.945-1.145-14.578-10.298-18.97-7.264-3.513-9.542-5.939-8.682-10.229.758-2.828 3.493-4.911 7.934-4.909 4.923.001 9.996 3.659 12.544 5.318l8.462-10.679c-3.534-3.024-10.734-6.403-20.001-6.407Zm198.155.084c-19.692-.008-33.039 14.591-38.45 34.773-5.594 20.864.067 32.675 19.855 32.684 7.819.003 14.326-1.536 18.728-3.191l-.525-10.911c-3.963 1.46-8.752 2.738-13.289 2.736-10.232-.004-10.867-9.251-7.312-22.51 3.711-13.845 9.628-22.161 17.93-22.157 3.379.001 6.283 1.213 8.678 5.602l11.113-8.964c-2.544-4.194-6.4-8.057-16.728-8.062Zm-395.999.575c-4.247-.001-17.901.164-20.121.163l-17.688 65.971 15.891.007 7.489-27.93h1.696c6.661.004 6.12 9.703 9.534 27.938l17.078.007c-2.47-15.992-3.31-26.289-9.76-30.68 7.568-3.019 13.36-8.272 15.582-16.559 3.319-12.383-3.291-18.91-19.701-18.917Zm273.367.116c-4.054-.002-17.805.164-20.122.163l-17.687 65.971c2.8.001 15.303.121 18.971.122 18.437.007 29.404-6.307 32.671-18.494 2.013-7.507-1.052-13.225-9.947-16.056 8.84-2.727 14.527-7.987 16.304-14.617 2.824-10.53-3.973-17.082-20.19-17.089Zm-348.343.024-3.154 11.766 15.551.007-14.532 54.205 16.004.007 14.532-54.205 14.986.007 5.19-11.765-48.577-.022Zm112.706.048-17.687 65.971 16.004.007 17.687-65.972-16.004-.006Zm27.936.012-17.687 65.971 15.947.007 17.688-65.971-15.948-.007Zm35.062.015c-6.853 14.039-12.903 23.113-25.784 28.666l-.321 1.199 12.489 36.108 17.757.007-13.268-34.68c8.414-5.457 16.466-12.868 25.074-31.293l-15.947-.007Zm26.522.011-17.687 65.971 42.979.019 3.154-11.767-27.031-.012 4.472-16.679 19.51.009 5.016-11.537-21.433-.009 3.813-14.222 25.674.01 3.155-11.766-41.622-.017Zm200.134.084-42.457 65.961 15.835.007 9.218-15.819 21.15.008.621 15.824 16.117.007-6.347-65.981-14.137-.007Zm94.383.04-17.687 65.972 16.004.007 17.687-65.972-16.004-.007Zm35.118.016c-6.853 14.039-12.903 23.113-25.783 28.666l-.322 1.199 12.49 36.108 17.813.007-13.325-34.68c8.414-5.457 16.353-12.868 24.961-31.294l-15.834-.006ZM208.22 235.161l3.563.002c6.564.003 7.498 4.096 6.191 8.971-1.594 5.947-5.893 8.737-10.43 8.736l-4.071-.002 4.747-17.707Zm275.033.231c.72-.016 1.554.001 2.375.001 5.695.002 7.181 3.38 5.744 8.742-1.752 6.533-6.015 8.509-9.973 8.508l-4.467-.002 4.594-17.135a18.102 18.102 0 0 1 1.727-.114Zm61.585 6.138c.167 4.778.585 14.045 1.152 21.651l-13.912-.005c4.619-7.507 9.979-16.673 12.76-21.645v-.001Zm-66.319 21.222c7.336.004 8.507 4.554 7.2 9.429-1.725 6.435-6.226 8.281-11.438 8.278l-4.807-.001 4.701-17.536c.895-.097 2.606-.17 4.344-.169v-.001ZM61.745 302.304l-7.93 27.447 612.487.259 7.936-27.586-612.493-.12Z" fill="#E8E1CF"/><path d="m167.725 54.361-14.111-.005 4.225-14.93-11.289-.006-4.224 14.93-11.625-.004-.038.136-5.835-.002c-17.253-.276-21.862 7.402-27.666 21.777l-67.488 256.4c-3.441 12.167 3.29 21.798 15.338 21.794l459.349-.215c.02-.001.044.001.063.001a39.193 39.193 0 0 1 2.506-.067l11.625.005 4.6.002-3.61 12.76-10.715-.006c-2.979-.001-5.181.092-6.662.269-1.481.179-2.845.466-4.08.881-1.234.415-2.417 1.141-3.571 2.17-1.154 1.029-2.205 2.816-3.082 5.429-.618 2.534-.584 4.341.009 5.43.594 1.089 1.486 1.816 2.678 2.173a20.21 20.21 0 0 0 3.754.748c1.332.139 3.352.205 6.057.207l10.524.005-3.629 12.827-16.035-.007c-4.605-.002-8.529-.872-11.787-2.516-3.254-1.665-5.47-4.163-6.691-7.47-1.201-3.306-1.143-7.359.212-12.149.873-3.085 2.186-5.811 3.956-8.28l-438.989.224c-18.634.004-29.443-15.402-24.12-34.22l67.49-256.401c9.355-26.547 17.407-34.95 43.458-34.124l3.347.002 8.277-29.25 14.111.005-4.032 14.252 11.288.005 4.033-14.252 14.111.005-10.792 38.142-.941 3.325 14.38.005 4.8-7.464 12.901.005.576 7.466 16.395.007-2.781-41.473-21.435-.008-23.895 38.136-.94 3.326Zm83.698-41.437c-3.395-.002-6.7.376-9.954 1.217a33.13 33.13 0 0 0-9.072 3.797 27.082 27.082 0 0 0-7.248 6.378c-2.019 2.546-3.486 5.43-4.407 8.686-1.311 4.633-1.302 8.544-.029 11.742 1.292 3.199 3.542 5.656 6.882 7.266 3.345 1.59 7.401 2.379 12.095 2.38l16.194.008 3.932-12.352-10.987-.005c-2.756-.001-4.831-.072-6.191-.205a22.484 22.484 0 0 1-3.888-.749c-1.22-.345-2.144-1.051-2.764-2.105-.621-1.053-.594-2.776 0-5.226.855-2.527 1.815-4.298 2.976-5.294 1.16-.994 2.367-1.7 3.619-2.102a21.626 21.626 0 0 1 4.147-.88c1.507-.174 3.808-.201 6.845-.2l10.918.005 3.932-12.351-5.173-.002-11.827-.005v-.003Zm20.965.008L260.655 54.4l14.044.005 3.495-12.351 7.457 12.356 15.792.007h1.276l440.985-.22c12.049-.003 18.78 9.627 15.339 21.794l-67.393 256.4c-4.244 18.792-13.431 21.774-27.667 21.776l-28.171.052-.065.001-24.594-.01-12.136 42.892 22.51.009c3.831.042 7.119-.21 9.955-.743a17.319 17.319 0 0 0 7.632-3.458c2.217-1.741 3.765-4.283 4.723-7.668a7.477 7.477 0 0 0 .182-3.258c-.178-1.109-.582-2.116-1.237-2.987-.631-.891-1.507-1.675-2.641-2.309-1.127-.654-2.462-1.025-3.954-1.225l.039-.136c3.452-1.048 6.088-2.379 7.92-4.001 1.373-1.217 2.441-2.775 3.139-4.682l13.187-.059c28.474.001 36.344-6.816 43.477-34.191l67.394-256.4c5.322-18.818-5.506-34.157-24.14-34.152l-440.986.221h-1.277l-11.691-.006-4.809-8.418 21.983-20.693-14.043-.005-13.767 13.501 3.822-13.505-5.443-.002-8.604-.002Zm-71.669 9.133 1.065 16.426-11.894-.005 10.829-16.42Zm326.774 332.111-12.136 42.893 33.823.177 3.629-12.827-19.981-.174 8.507-30.066-13.842-.003Zm37.417.016-7.125 25.179c-1.019 3.602-1.309 6.518-.864 8.756.464 2.237 1.485 4.073 3.081 5.499 1.615 1.426 3.678 2.45 6.172 3.124a33.732 33.732 0 0 0 7.689 1.09c3.158-.08 6.127-.495 8.899-1.286 2.791-.791 5.235-1.899 7.324-3.323 2.109-1.424 3.986-3.242 5.683-5.36 1.722-2.137 3.167-4.987 4.234-8.55l7.105-25.111-13.842-.006-7.163 25.315c-.717 2.811-1.93 4.853-3.657 6.04-1.728 1.187-3.671 1.791-5.76 1.83-2.565-.082-4.297-.706-5.193-1.835-.896-1.129-.839-3.151.096-6.041l7.163-25.315-13.842-.006Zm53.651 10.407 10.281.004c.451 0 .956.203 1.488.679.552.476.684 1.344.432 2.512-.325 1.01-.899 1.83-1.699 2.443-.796.593-1.496.882-2.064.882l-10.281-.004 1.843-6.516Zm-4.493 15.882 9.407.003c1.96.001 3.433.375 4.329 1.088.916.713 1.123 1.672.653 2.919-.318 1.129-1.187 2.078-2.621 2.849a8.943 8.943 0 0 1-4.608 1.084l-9.407-.003 2.247-7.94Z" fill="#DB4B4F" stroke="#E8E1CF" stroke-width="1.492"/></g><defs><clipPath id="a"><path fill="#fff" d="M0 0h787v410H0z"/></clipPath></defs></svg>
